dist/assets/img/corporulia/edinuses/messages/message_mission.svg

<svg width="373" height="188" viewBox="0 0 373 188" fill="none" xmlns="http://www.w3.org/2000/svg">
<g filter="url(#filter0_di_1464_65978)">
<path fill-rule="evenodd" clip-rule="evenodd" d="M45.1783 104.435C27.8443 60.4874 57.7798 37.0763 79.7554 30.6227C96.1588 25.8055 110.704 28.4929 128.376 31.758C143.437 34.5407 160.769 37.743 183.458 37.0765C198.955 36.6212 212.878 35.4997 225.616 34.4736C253.478 32.2293 275.676 30.4412 296.305 37.077C311.499 41.9641 350.603 74.598 323.908 109.932C321.981 112.482 321.307 115.969 323.187 118.554C325.563 121.821 328.437 124.105 331.911 126.864V126.864C332.345 127.209 332.203 127.889 331.656 127.984C326.987 128.801 321.874 127.091 317.629 124.795C314.492 123.097 310.634 123.078 307.48 124.743C291.284 133.293 268.079 131.756 243.923 130.155C228.435 129.128 212.557 128.076 197.883 129.64C193.672 130.089 189.305 130.58 184.822 131.084C131.221 137.113 61.1746 144.991 45.1783 104.435Z" fill="white"/>
</g>
<defs>
<filter id="filter0_di_1464_65978" x="0" y="0" width="373" height="188" filterUnits="userSpaceOnUse" color-interpolation-filters="sRGB">
<feFlood flood-opacity="0" result="BackgroundImageFix"/>
<feColorMatrix in="SourceAlpha" type="matrix" values="0 0 0 0 0 0 0 0 0 0 0 0 0 0 0 0 0 0 127 0" result="hardAlpha"/>
<feOffset dy="12"/>
<feGaussianBlur stdDeviation="20"/>
<feComposite in2="hardAlpha" operator="out"/>
<feColorMatrix type="matrix" values="0 0 0 0 0.909804 0 0 0 0 0.313726 0 0 0 0 0.470588 0 0 0 1 0"/>
<feBlend mode="normal" in2="BackgroundImageFix" result="effect1_dropShadow_1464_65978"/>
<feBlend mode="normal" in="SourceGraphic" in2="effect1_dropShadow_1464_65978" result="shape"/>
<feColorMatrix in="SourceAlpha" type="matrix" values="0 0 0 0 0 0 0 0 0 0 0 0 0 0 0 0 0 0 127 0" result="hardAlpha"/>
<feOffset dy="-4"/>
<feGaussianBlur stdDeviation="4"/>
<feComposite in2="hardAlpha" operator="arithmetic" k2="-1" k3="1"/>
<feColorMatrix type="matrix" values="0 0 0 0 0.909804 0 0 0 0 0.313726 0 0 0 0 0.470588 0 0 0 0.16 0"/>
<feBlend mode="normal" in2="shape" result="effect2_innerShadow_1464_65978"/>
</filter>
</defs>
</svg>

<svg width="373" height="188" viewBox="0 0 373 188" fill="none" xmlns="http://www.w3.org/2000/svg"><g filter="url(#filter0_di_1464_65978)"><path fill-rule="evenodd" clip-rule="evenodd" d="M45.178 104.435C27.844 60.487 57.78 37.076 79.755 30.623c16.404-4.818 30.949-2.13 48.621 1.135 15.061 2.783 32.393 5.985 55.082 5.319 15.497-.456 29.42-1.577 42.158-2.603 27.862-2.245 50.06-4.033 70.689 2.603 15.194 4.887 54.298 37.521 27.603 72.855-1.927 2.55-2.601 6.037-.721 8.622 2.376 3.267 5.25 5.551 8.724 8.31.434.345.292 1.025-.255 1.12-4.669.817-9.782-.893-14.027-3.189a10.84 10.84 0 00-10.149-.052c-16.196 8.55-39.401 7.013-63.557 5.412-15.488-1.027-31.366-2.079-46.04-.515-4.211.449-8.578.94-13.061 1.444-53.601 6.029-123.647 13.907-139.644-26.649z" fill="#fff"/></g><defs><filter id="filter0_di_1464_65978" x="0" y="0" width="373" height="188" filterUnits="userSpaceOnUse" color-interpolation-filters="sRGB"><feFlood flood-opacity="0" result="BackgroundImageFix"/><feColorMatrix in="SourceAlpha" values="0 0 0 0 0 0 0 0 0 0 0 0 0 0 0 0 0 0 127 0" result="hardAlpha"/><feOffset dy="12"/><feGaussianBlur stdDeviation="20"/><feComposite in2="hardAlpha" operator="out"/><feColorMatrix values="0 0 0 0 0.909804 0 0 0 0 0.313726 0 0 0 0 0.470588 0 0 0 1 0"/><feBlend in2="BackgroundImageFix" result="effect1_dropShadow_1464_65978"/><feBlend in="SourceGraphic" in2="effect1_dropShadow_1464_65978" result="shape"/><feColorMatrix in="SourceAlpha" values="0 0 0 0 0 0 0 0 0 0 0 0 0 0 0 0 0 0 127 0" result="hardAlpha"/><feOffset dy="-4"/><feGaussianBlur stdDeviation="4"/><feComposite in2="hardAlpha" operator="arithmetic" k2="-1" k3="1"/><feColorMatrix values="0 0 0 0 0.909804 0 0 0 0 0.313726 0 0 0 0 0.470588 0 0 0 0.16 0"/><feBlend in2="shape" result="effect2_innerShadow_1464_65978"/></filter></defs></svg>
